X:1
T:Sarabande in D minor
C:George Frideric Handel
M:3/4
L:1/4
Q:1/4=44
K:Dm
|: D2 A | F2 E | D3 | E2 F | G2 F | E2 D | F2 E | D3 :|
|: F2 G | A2 G | F2 E | D2 E | F2 G | A2 B | A3 | D3 |]
